X: 43518
T: Ymgyrchdon Y Waunlwyd
R: polka
M: 2/4
K: Gmajor
|:de/f/|gd Bd|cA Ac|BG dB|BA de/f/|
gd Bd|cA Ac|BG AF|G2:|
|:G2|FA A3/2A/|cB B2|GB B3/2B/|dB Bd|
ee/f/ ge|dd Bd|cA GF|G2:|

